kettle-alert.svg

<svg fill="currentColor" viewBox="0 0 24 24"><path d="M9.5 3C4.8 3 1 5.7 1 9c0 1.2.5 2.3 1.4 3.3C1.5 13.5 1 15 1 16.5V20c0 1.1.9 2 2 2h13c1.1 0 2-.9 2-2v-3.5c0-1.2-.3-2.4-1-3.5l2-2-3-3-2.1 2.1C12.6 9.4 11.1 9 9.5 9c-1.8 0-3.6.5-4.9 1.4C4.2 10 4 9.5 4 9c0-1.8 2.5-3.2 5.5-3.2 1.4 0 2.8.3 3.8.9l2-2C13.8 3.6 11.7 3 9.5 3m0 8c.3 0 .7 0 1 .1-3.1.5-5.5 3.1-5.5 6.4V20H3v-2.5C3 13.9 5.9 11 9.5 11M21 13V7h2v6zm0 4v-2h2v2z"/></svg>

<svg  viewBox="0 0 24 24" fill="currentColor"><path  d="M9.5 3C4.8 3 1 5.7 1 9C1 10.2 1.5 11.3 2.4 12.3C1.5 13.5 1 15 1 16.5V20C1 21.1 1.9 22 3 22H16C17.1 22 18 21.1 18 20V16.5C18 15.3 17.7 14.1 17 13L19 11L16 8L13.9 10.1C12.6 9.4 11.1 9 9.5 9C7.7 9 5.9 9.5 4.6 10.4C4.2 10 4 9.5 4 9C4 7.2 6.5 5.8 9.5 5.8C10.9 5.8 12.3 6.1 13.3 6.7L15.3 4.7C13.8 3.6 11.7 3 9.5 3M9.5 11C9.8 11 10.2 11 10.5 11.1C7.4 11.6 5 14.2 5 17.5V20H3V17.5C3 13.9 5.9 11 9.5 11M21 13V7H23V13H21M21 17V15H23V17H21Z"/></svg>
